X: 3791
T: Bisonpolska
R: waltz
M: 3/4
K: Aminor
|:EA c2 B>A|BG G3G-|GB dd BB|c2 ed/c/ dB|cA E3E-|
EA c2 B>A|BG G3G-|GB dd BB|c2 ed/c/ dB|1 cA A4:|2 cA A3E||-
K:Ador
|:EA c2 eg|f2 fe/d/ e2-|eg fd/f/ ag/f/|ge c2 eg|
f2 fe/d/ e2-|eg fe/d/ ec|AE =F2 Ac|BG G3G-|
GB dd BB|c2 ed/c/ dB|1 cA A3(E:|2 cA A4||

